X:1
T:Menuett aus Orchestersuite Nr. 4
T:Menuett
T:aus: Orchestersuite Nr. 4, BWV 1069
T:J. S. Bach
C:J. S. Bach
%%score { ( 1 2 ) | ( 3 4 ) }
L:1/8
Q:1/4=120
M:3/4
K:F
V:1 treble nm="Klavier" snm="Klav."
V:2 treble 
V:3 bass 
V:4 bass 
V:1
"^elegant"!mf! (AB) (B3 A/B/) | cB AG FE | D2 G2 E2 | FE FG AF | (GA)"_cresc." (A3 G/A/) | %5
 BA GA BG | (A=B) (B3 A/B/) |1!f!!>(! c6!>)! :|2!f!!>(! c6!>)! |:!mp! G2 FE FD | (EF) G2 C2 | %11
 (FG) (G3 F/G/ | A)G FG AB | c2 (A3 G/A/) | B2 ^F2 ((G2 | G)A)"_decresc." (A3 G) |!mp! G6 | %17
!f! (Bc) d2 F2 | E2 c4 | (AB) c2 _E2 | D2"_decresc." B4 | (EF) G2 C2 | FG AB c_E | D2 =E2 F2 | %24
 G2!>(! FE D2!>)! |!mp! (FE) F2 C2 | A,2 _E4 | D2"_cresc." EF GA | B2 C4 |!mf! (AB) (B3 A/B/) | %30
 cB AG FE | D2 G2 E2 | F6 :| %33
V:2
 F2 FE F2 | F6 | B,2 D2 C2 | C4 F2 | C2 E2 C2 | F2 G2 E2 | FG FE FD |1 E6 :|2 E6 |: E2 DC D2 | %10
 CD EF GE | F2 F2 E2 | F2 C2 F2 | ^FG A2 D2- | D2 C2 B,2 | _E2 (D2 C2) | B,6 | (GA) (B4- | %18
 B2 A2 G2) | (FG) (A4- | A2 G2 F2) | C6- | C2 FE FC | B,2 B,2 C2 | E2 C2 G,2 | C6 | CD CB, CA, | %27
 B,2 G4- | GA GF GE | C2 FE F2 | F6 | B,2 D2 C2 | C6 :| %33
V:3
 C2 F,2 D2 | C6 | F,2 B,2 G,2 | A,G, A,B, C2 | G,2 C2 E,2 | F,2 C4 | C2 F,2 G,2 |1 G,6 :|2 G,6 |: %9
 C2 A,2 G,2 | G,2 C4 | C2 D2 C2 | CB, A,B, CD | _E2 D2 C2 | B,2 A,2 G,2- | G,2 (^F,3 G,) | G,6 | %17
 DC B,C DB, | G,2 E2 C2 | CB, A,B, CA, | F,2 D2 B,2 | B,2 (E3 D/E/) | F2 C2 A,2 | F,2 G,2 A,2 | %24
 C2 G,4 | F,2 F,2 F,2 | F,2 F,2 F,2 | F,2 C2 C2 | C2 C2 C2 | F,4 D2 | C6 | F,2 B,2 G,2 | A,6 :| %33
V:4
 F,E, D,C, D,B,, | A,,6 | B,,2 G,,2 C,2 | A,,2 G,,2 F,,2 | E,D, C,B,, C,A,, | D,2 E,2 C,2 | %6
 F,2 D,2 G,2 |1 C,2 C,D, E,C, :|2 C,2 E,2 G,2 |: (C,4 =B,,2) | C,2 _B,,A,, B,,G,, | A,,2 B,,2 C,2 | %12
 F,,2 F,2 C,2 | A,G, ^F,E, F,D, | G,2 D,2 _E,2 | C,2 D,2 D,2 | G,,2!<(! B,,2!<)! D,2 | %17
 G,,2 G,,A,, B,,G,, | C,B,, C,D, E,C, | F,2 F,,G,, A,,F,, | B,,A,, B,,C, D,B,, | %21
 C,2 B,,A,, B,,G,, | A,,G,, F,,G,, A,,F,, | B,,2 G,,2 F,,2 | (C,4 B,,2) | A,,G,, A,,B,, C,D, | %26
 _E,2 A,,G,, A,,F,, | B,,C, B,,A,, G,,F, | E,F, E,D, E,C, | F,E, D,C, D,B,, | A,,6 | %31
 B,,2 G,,2 C,2 | F,,6 :| %33

